albertroad.htmlalbertroad.htmlalbertroad.htmlalbertroad.htmlalbertroad.htmlalbertroad.htmlalbertroad.htmlalbertroad.htmlalbertroad.htmlSource: Liz Carroll
albertroad.htmlalbertroad.html<PRE>T:Glen Road to Carrick, The
T:Glen Road to Carrick, The
M:4/4
L:1/8
S:Liz Carroll
R:reel
Z:Devin McCabe
K:D
FD (3DDD FDGD|E~F2G ABAG|FD (3DDD FDGD|1Ed=cA GcAG:|2Ed=cA G2FG|
!:Addc ABAG|FAdc A2FG|Addc AGFD|1(3EFG =cA G2FG:|2(3EFG =cA G2eg|
!:fd (3ddd fdgd|fdfg abag|fd (3ddd fdef|g2bg efge:|
!:~f3e d=cAG|AFdF A2(3ABc|d2fd AGFD|1(3EFG =cA G3e:|2(3EFG =cA GAB^c|
!:dD (3DDD AD (3DDD|dD (3DDD A2Bc|dD (3DDD ADFD|1Ed=cA G2(3AB^c:|2Ed=cA
G2EG||

%  ABC2Win Version 2.1 1/19/2001
albertroad.htmlalbertroad.htmlalbertroad.htmlalbertroad.htmlalbertroad.htmlalbertroad.htmlalbertroad.html